public/assets/twitter.svg

<svg width="100" height="100" viewBox="0 0 100 100" fill="none" xmlns="http://www.w3.org/2000/svg">
<path d="M50 0C22.39 0 0 22.39 0 50C0 77.61 22.39 100 50 100C77.61 100 100 77.61 100 50C100 22.39 77.61 0 50 0ZM72.8294 38.9847C72.8516 39.4768 72.8622 39.9712 72.8622 40.4678C72.8622 55.6328 61.319 73.1201 40.2092 73.1209C33.728 73.1209 27.697 71.2212 22.6181 67.9657C23.5161 68.0717 24.4301 68.1244 25.3555 68.1244C30.7327 68.1244 35.6812 66.2903 39.6095 63.2118C34.5856 63.1187 30.3497 59.8007 28.8879 55.2406C29.5876 55.3749 30.307 55.4482 31.0448 55.4482C32.0923 55.4482 33.107 55.307 34.0714 55.0438C28.82 53.9925 24.8642 49.3515 24.8642 43.7943C24.8642 43.7424 24.8642 43.6958 24.8657 43.6478C26.4122 44.5076 28.1807 45.0249 30.0636 45.0829C26.9821 43.0267 24.9565 39.5119 24.9565 35.5301C24.9565 33.4274 25.5249 31.4575 26.5106 29.7615C32.1701 36.7058 40.6281 41.2727 50.1663 41.7526C49.9695 40.9119 49.868 40.036 49.868 39.1357C49.868 32.8003 55.0079 27.6604 61.3457 27.6604C64.6469 27.6604 67.6285 29.0558 69.7227 31.2866C72.3373 30.7709 74.7925 29.8157 77.0103 28.5011C76.152 31.1798 74.3332 33.4274 71.9635 34.8488C74.2851 34.5711 76.4977 33.9554 78.5538 33.0414C77.018 35.3432 75.0702 37.365 72.8294 38.9847Z" fill="#F7D59C"/>
</svg>

<svg width="100" height="100" fill="none" xmlns="http://www.w3.org/2000/svg"><path d="M50 0C22.39 0 0 22.39 0 50s22.39 50 50 50 50-22.39 50-50S77.61 0 50 0Zm22.83 38.985c.022.492.032.986.032 1.483 0 15.165-11.543 32.652-32.653 32.653-6.481 0-12.512-1.9-17.59-5.155.897.106 1.811.158 2.736.158a23.027 23.027 0 0 0 14.254-4.912c-5.023-.093-9.26-3.411-10.721-7.971a11.421 11.421 0 0 0 5.183-.197c-5.251-1.051-9.207-5.692-9.207-11.25 0-.052 0-.098.002-.146a11.398 11.398 0 0 0 5.198 1.435 11.466 11.466 0 0 1-5.108-9.553c0-2.103.569-4.073 1.555-5.768 5.66 6.944 14.117 11.51 23.655 11.99a11.468 11.468 0 0 1-.298-2.616c0-6.336 5.14-11.476 11.478-11.476 3.3 0 6.283 1.396 8.377 3.627A23.016 23.016 0 0 0 77.01 28.5a11.521 11.521 0 0 1-5.047 6.348 22.888 22.888 0 0 0 6.59-1.808 23.322 23.322 0 0 1-5.724 5.944Z" fill="#F7D59C"/></svg>
